X:176
T:Sno
R:jig
C:Bruce Osborne - Nov. 2002
Z:abc by bosborne@kos.net
M:6/8
L:1/8
K:C
G/F/|EDE G^FG|cBc edc|gec cBc|dBG AFD|\
EDE G^FG|cBc edc|gec cBc|dBG c2:|
|:e/f/|gee aee|gec cBc|dBG GAB|cea gef|\
gee aee|gec cBc|dBG GAB|ced c2:|
